X:JCN-937
T:Pohlsk dans
T:(Totakt-pols, nr. JCN-937)
S:efter J C Nielsen
R:Totakt-pols
B:Totakt-pols
O:Ribe amt, Danmark
N:Fler låtar från Danmark...
M:2/4
L:1/4
K:A
Q:100
|: "A"c e | a e | "E"e/d/c/B/ | "A"B A | c e | a e | "E"e/d/c/B/ | "A"A z :|
|: "A"c2 | "E"B G | "A"A/B/c/d/ | "E"e/f/g/e/ | "A"a a | "D"f>d | "A"c/e/"E"d/B/ | "A"A z :|

